src/assets/duotone/MoreSquare.svg

<?xml version="1.0" encoding="UTF-8"?>
<svg width="24" height="24" viewBox="0 0 24 24" xmlns="http://www.w3.org/2000/svg">
 <path d="M16.19 2H7.81C4.17 2 2 4.17 2 7.81V16.18C2 19.83 4.17 22 7.81 22H16.18C19.82 22 21.99 19.83 21.99 16.19V7.81C22 4.17 19.83 2 16.19 2Z" opacity=".4"/>
 <path d="m12 13c-0.56 0-1-0.45-1-1s0.45-1 1-1 1 0.45 1 1-0.44 1-1 1z"/>
 <path d="m16 13c-0.56 0-1-0.45-1-1s0.45-1 1-1 1 0.45 1 1-0.44 1-1 1z"/>
 <path d="m8 13c-0.56 0-1-0.45-1-1s0.45-1 1-1 1 0.45 1 1-0.44 1-1 1z"/>
</svg>

<svg width="24" height="24" viewBox="0 0 24 24"  xmlns="http://www.w3.org/2000/svg">
<path opacity="0.4" d="M16.19 2H7.81C4.17 2 2 4.17 2 7.81V16.18C2 19.83 4.17 22 7.81 22H16.18C19.82 22 21.99 19.83 21.99 16.19V7.81C22 4.17 19.83 2 16.19 2Z" />
<path d="M12 13C11.44 13 11 12.55 11 12C11 11.45 11.45 11 12 11C12.55 11 13 11.45 13 12C13 12.55 12.56 13 12 13Z" />
<path d="M16 13C15.44 13 15 12.55 15 12C15 11.45 15.45 11 16 11C16.55 11 17 11.45 17 12C17 12.55 16.56 13 16 13Z" />
<path d="M8 13C7.44 13 7 12.55 7 12C7 11.45 7.45 11 8 11C8.55 11 9 11.45 9 12C9 12.55 8.56 13 8 13Z" />
</svg>
